actions/22x22-dark/draw-cuboid.svg

<svg xmlns="http://www.w3.org/2000/svg" viewBox="0 0 22 22">
 <defs id="defs3051">
   <style type="text/css" id="current-color-scheme">
     .ColorScheme-Text {
       color:#f2f2f2;
     }
     </style>
 </defs>
   <path
      style="fill:currentColor;fill-opacity:1;stroke:none"
      d="m11 .41210938c-.7415.47059999-.007-.00001875-.78125.48828124l-8.21875 5.46874998v1.21875 7.5937504.40625c1.14882.7517.22209.1443.75.5l7.34375 4.90625c.89535.5962.008-.00005.90625.59375 8.02331-5.3242 6.05377-4.0138 8.375-5.5625.63161-.4616.11719-.09495.625-.46875v-.34375-.03125-7.5937504-1.21875c-2.3238-1.5467-.33991-.2266-.5625-.375l-7.65625-5.09374998-.40625-.25c-.28276-.182 1.22337.79081878-.375-.23828124zm-.5 1.51953122v7.75l-.0625.09375-.21875.125-7.21875 4.8125004v-7.7812504zm1 0 7.5 5v7.6250004l-7.5-5.0000004zm-.375 8.5937504 7.3125 4.875-7.4375 4.96875-7.34375-4.875 7.125-4.75z"
      class="ColorScheme-Text" />
   <path
      style="fill:currentColor;fill-opacity:.2;stroke:none"
      d="m10.582031 1.875c-.01267 0-1.7493747 1.1472281-3.8593748 2.5488281l-3.8359374 2.5488281v3.9570318c0 2.1774.0112906 3.958984.0253906 3.958984.01408 0 1.750785-1.148535 3.859375-2.552734l3.8339846-2.5527349v-3.9550781c0-2.1748-.010738-3.953125-.023438-3.953125z"
      class="ColorScheme-Text" />
   <path
      style="fill:currentColor;fill-opacity:.4;stroke:none"
      d="m11.089844 10.394531c-.11473.0047-7.6829721 5.111297-7.6386721 5.154297.02192.0211 1.7215437 1.164563 3.7773437 2.539063s3.7494714 2.492421 3.7636724 2.482421c.64001-.4148 7.602374-5.125437 7.609374-5.148437.015031-.0498-7.427418-5.027344-7.511718-5.027344z"
      class="ColorScheme-Text" />
   <path
      style="fill:currentColor;fill-opacity:.6;stroke:none"
      d="m11.427734 1.8125c-.0126 0-.024157 1.751125-.023437 3.890625l.001953 3.8886719 3.832031 2.5644531c2.10711 1.41 3.835797 2.566406 3.841797 2.566406.0064.0017.011719-1.752737.011719-3.898437v-3.9003909l-3.820313-2.5566406c-2.10146-1.4055-3.83115-2.5546875-3.84375-2.5546875z"
      class="ColorScheme-Text" />
</svg>

<svg xmlns="http://www.w3.org/2000/svg" viewBox="0 0 22 22">
  <defs id="defs3051">
    <style type="text/css" id="current-color-scheme">
      .ColorScheme-Text {
        color:#f2f2f2;
      }
      </style>
  </defs>
 <path 
     style="fill:currentColor;fill-opacity:1;stroke:none" 
     d="M 11 0.41210938 C 10.2585 0.88270937 10.993 0.41209063 10.21875 0.90039062 L 2 6.3691406 L 2 7.5878906 L 2 15.181641 L 2 15.587891 C 3.14882 16.339591 2.22209 15.732191 2.75 16.087891 L 10.09375 20.994141 C 10.9891 21.590341 10.10175 20.994091 11 21.587891 C 19.02331 16.263691 17.05377 17.574091 19.375 16.025391 C 20.00661 15.563791 19.49219 15.930441 20 15.556641 L 20 15.212891 L 20 15.181641 L 20 7.5878906 L 20 6.3691406 C 17.6762 4.8224406 19.66009 6.1425406 19.4375 5.9941406 L 11.78125 0.90039062 L 11.375 0.65039062 C 11.09224 0.46839062 12.59837 1.4412094 11 0.41210938 z M 10.5 1.9316406 L 10.5 9.6816406 L 10.4375 9.7753906 L 10.21875 9.9003906 L 3 14.712891 L 3 6.9316406 L 10.5 1.9316406 z M 11.5 1.9316406 L 19 6.9316406 L 19 14.556641 L 11.5 9.5566406 L 11.5 1.9316406 z M 11.125 10.525391 L 18.4375 15.400391 L 11 20.369141 L 3.65625 15.494141 L 10.78125 10.744141 L 11.125 10.525391 z "
     class="ColorScheme-Text"
     />
 <path 
     style="fill:currentColor;fill-opacity:0.2;stroke:none" 
     d="M 10.582031 1.875 C 10.569361 1.875 8.8326563 3.0222281 6.7226562 4.4238281 L 2.8867188 6.9726562 L 2.8867188 10.929688 C 2.8867188 13.107088 2.8980094 14.888672 2.9121094 14.888672 C 2.9261894 14.888672 4.6628944 13.740137 6.7714844 12.335938 L 10.605469 9.7832031 L 10.605469 5.828125 C 10.605469 3.653325 10.594731 1.875 10.582031 1.875 z "
     class="ColorScheme-Text"
     />
 <path 
     style="fill:currentColor;fill-opacity:0.4;stroke:none" 
     d="M 11.089844 10.394531 C 10.975114 10.399231 3.4068719 15.505828 3.4511719 15.548828 C 3.4730919 15.569928 5.1727156 16.713391 7.2285156 18.087891 C 9.2843156 19.462391 10.977987 20.580312 10.992188 20.570312 C 11.632198 20.155512 18.594562 15.444875 18.601562 15.421875 C 18.616593 15.372075 11.174144 10.394531 11.089844 10.394531 z "
     class="ColorScheme-Text"
     />
 <path 
     style="fill:currentColor;fill-opacity:0.6;stroke:none" 
     d="M 11.427734 1.8125 C 11.415134 1.8125 11.403577 3.563625 11.404297 5.703125 L 11.40625 9.5917969 L 15.238281 12.15625 C 17.345391 13.56625 19.074078 14.722656 19.080078 14.722656 C 19.086478 14.724356 19.091797 12.969919 19.091797 10.824219 L 19.091797 6.9238281 L 15.271484 4.3671875 C 13.170024 2.9616875 11.440334 1.8125 11.427734 1.8125 z "
     class="ColorScheme-Text"
     />
</svg>
